img/arrowsecond.svg

<svg width="27" height="27" viewBox="0 0 27 27" fill="none" xmlns="http://www.w3.org/2000/svg">
<path d="M5.99957 12.4465L18.0149 0.431338C18.2928 0.153218 18.6638 0 19.0593 0C19.4549 0 19.8259 0.153218 20.1038 0.431338L20.9886 1.31596C21.5644 1.8924 21.5644 2.82927 20.9886 3.40483L10.899 13.4944L20.9998 23.5952C21.2777 23.8733 21.4312 24.244 21.4312 24.6394C21.4312 25.0352 21.2777 25.4059 20.9998 25.6843L20.115 26.5687C19.8368 26.8468 19.4661 27 19.0705 27C18.675 27 18.304 26.8468 18.0261 26.5687L5.99957 14.5426C5.72101 14.2636 5.56801 13.8911 5.56889 13.4951C5.56801 13.0975 5.72101 12.7252 5.99957 12.4465Z" fill="white"/>
</svg>

<svg width="27" height="27" fill="none" xmlns="http://www.w3.org/2000/svg"><path d="M6 12.447L18.015.43A1.466 1.466 0 0119.059 0c.396 0 .767.153 1.045.431l.885.885a1.479 1.479 0 010 2.089l-10.09 10.09 10.1 10.1c.279.278.432.649.432 1.044 0 .396-.153.767-.431 1.045l-.885.885a1.467 1.467 0 01-1.044.431c-.396 0-.767-.153-1.045-.431L6 14.543a1.468 1.468 0 01-.431-1.048c-.001-.397.152-.77.43-1.048z" fill="#fff"/></svg>
